X:394
T:Lady Ann Hope
R:Strathspey
B:The Athole Collection
M:C
L:1/8
K:G
c|B/c/d/B/ G<B E<GD<G|F>A BA/G/ F<D D>c|B/c/d/B/ G>B E>GD>g|
e/f/g/e/ f/g/a/f/ g<GG:|
d|g>bg>d g>bg>d|e<a a>g f<d de/f/|g>ad>B c<ed<g|e<g f>a g<G G>d|
g>bg>d g>b g<d|e<a a>g f<d dg/a/|b>ga>f g>ed>c|B<gA<f g<GG||

